!!! OTL: Berkowitz179
!!! Chapter: 1
!!! Section: I
!!! Page: 41
!!! Mode: 
!!! Encoder: DJB
**kern
*staff1
*I"Piano
=1-
*clefG2
*k[b-e-]
*B-:
*M3/4
8b-\L
8dd\J
8gg\L
8ff\J
4gg\
=2
8cc\L
8ee-\J
8gg\L
8ff\J
4gg\
=3
8ff\L
8gg\J
8aa\L
8gg\J
8ff\L
8ee-\J
=4
4dd\
4ff\
4r
=5
8gg\L
8dd\J
8b-/L
8a/J
4b-\
=6
8gg\L
8ee-\J
8cc\L
8b-\J
4cc\
=7
8a/L
8b-/J
8cc\L
8dd\J
8ee-\L
8cc\J
=8
8dd\L
8b-\J
4g/
4r
=9
!!linebreak:original
8cc\L
8dd\J
8ee-\L
8cc\J
8a\L
8cc\J
=10
2b-\
4r
==
*-
